!!!COA: des Prez, Josquin
!!!CDT: ~1450-1521/08/27
!!!OTL: Beati quorum remisse sunt
!!!AGN: Motet
!!!SCT: NJE 15.4
!!!SCA: New des Prez, Josquin Edition 15.4
!!!voices: 5
!!!COM: des Prez, Josquin
!!!OTL: Jos1504-Beati,_quorum_remisse_sunt
**kern	**kern	**kern	**kern	**kern
*part5	*part4	*part3	*part2	*part1
*staff5	*staff4	*staff3	*staff2	*staff1
*Ivox	*Ivox	*Ivox	*Ivox	*Ivox
*I"Bassus	*I"Vagans	*I"Tenor	*I"Altus	*I"Discantus
*I'B	*I'V	*I'T	*I'A	*I'D
*>[A,B,C]	*>[A,B,C]	*>[A,B,C]	*>[A,B,C]	*>[A,B,C]
*>A	*>A	*>A	*>A	*>A
*clefF4	*clefF4	*clefGv2	*clefGv2	*clefG2
*k[]	*k[]	*k[]	*k[]	*k[]
*a:	*a:	*a:	*a:	*a:
*M2/1	*M2/1	*M2/1	*M2/1	*M2/1
*met(C|)	*met(C|)	*met(C|)	*met(C|)	*met(C|)
!!section: Prima pars: Beati, quorum remisse sunt
=1	=1	=1	=1	=1
0E	0r	0r	0E	0r
=2	=2	=2	=2	=2
1AA	0r	0r	1A	0r
1E	.	.	1G	.
=3	=3	=3	=3	=3
1C	0r	0r	1c	0r
[1G	.	.	1B	.
=4	=4	=4	=4	=4
1G]	0r	0r	1.B	0r
[1E	.	.	.	.
.	.	.	2B	.
=5	=5	=5	=5	=5
2E]	0r	0r	2B	0r
2E	.	.	2B	.
2E	.	.	[1e	.
2E	.	.	.	.
=6	=6	=6	=6	=6
1.A	0r	0r	2e]	0r
.	.	.	2d	.
.	.	.	2c	.
2G	.	.	2B	.
=7	=7	=7	=7	=7
2F	0r	0r	1c	0r
2E	.	.	.	.
1F	.	.	1A	.
=8	=8	=8	=8	=8
1D	0r	0r	0B	0r
[1E	.	.	.	.
=9	=9	=9	=9	=9
1E]	0r	0r	1r	0r
1r	.	.	1E	.
=10	=10	=10	=10	=10
1AA	0r	0r	1A	0r
1E	.	.	1G	.
=11	=11	=11	=11	=11
1C	0r	0r	1c	0r
[1G	.	.	1B	.
=12	=12	=12	=12	=12
1G]	0r	0r	0e	0r
1E	.	.	.	.
=13	=13	=13	=13	=13
1.F	0r	0r	1d	0r
.	.	.	1c	.
2E	.	.	.	.
=14	=14	=14	=14	=14
2D	0r	0r	2B	0r
2C	.	.	1A	.
1BB	.	.	.	.
.	.	.	2G#Xi	.
=15	=15	=15	=15	=15
1AA	0r	1r	0A	0a
1r	.	1A	.	.
=16	=16	=16	=16	=16
1AA	0r	1c	1r	1e
1E	.	1G	1E	1g
=17	=17	=17	=17	=17
[0D	0r	1d	0F	0a
.	.	2r	.	.
.	.	[2d	.	.
=18	=18	=18	=18	=18
1D]	0r	2d]	1D	2r
.	.	2d	.	1a
1AA	.	2c	[1E	.
.	.	2A	.	2a
=19	=19	=19	=19	=19
1r	0r	1B	1E]	1g
1A	.	1A	1r	1cc
=20	=20	=20	=20	=20
1G	0r	1e	1E	2b
.	.	.	.	2g
[1F	.	[1f	[1A	1a
=21	=21	=21	=21	=21
2F]	0r	2f]	2A]	1.cc
2F	.	2f	1A	.
1A	.	2e	.	.
.	.	2c	2F	2cc
=22	=22	=22	=22	=22
2G	0r	1d	2G	2b
2F	.	.	1A	2a
2G	.	[1d	.	1b
2G	.	.	2G	.
=23	=23	=23	=23	=23
2D	0r	1d]	2A	0a
2D	.	.	2A	.
1D	.	1r	2A	.
.	.	.	2A	.
=24	=24	=24	=24	=24
1D	0r	1d	1F	1r
1r	.	1d	1D	1a
=25	=25	=25	=25	=25
1D	0r	2A	1r	1a
.	.	2A	.	.
2C	.	[1c	1G	1e
2C	.	.	.	.
=26	=26	=26	=26	=26
1.F	0r	2c]	2F	1.a
.	.	2c	1A	.
.	.	1d	.	.
2F	.	.	2A	2a
=27	=27	=27	=27	=27
2E	0r	1e	2B	1g
2.C	.	.	2.c	.
.	.	2.c	.	2e
4D	.	.	4B	.
2E	.	.	2G	2g
.	.	4B	.	.
=28	=28	=28	=28	=28
2F	0r	2A	2A	2f
2G	.	2G	2B	1e
1A	.	1F	2c	.
.	.	.	2A	2d
=29	=29	=29	=29	=29
[0AA	0A	0E	[0c	[0e
=30	=30	=30	=30	=30
0AA]	2A	0r	0c]	0e]
.	2A	.	.	.
.	2A	.	.	.
.	2A	.	.	.
=31	=31	=31	=31	=31
[0E	1G	1r	1B	0r
.	1C	1c	2r	.
.	.	.	2e	.
=32	=32	=32	=32	=32
0E]	2.C	2c	2e	0r
.	.	2c	2e	.
.	4C	.	.	.
.	2C	2c	2e	.
.	2C	2c	2e	.
=33	=33	=33	=33	=33
0r	[0G	1B	1d	1b
.	.	2r	2r	[1b
.	.	2E	2g	.
=34	=34	=34	=34	=34
0r	0G]	2.E	2.g	2b]
.	.	.	.	2b
.	.	4E	4g	.
.	.	2E	2g	2b
.	.	2E	2g	2b
=35	=35	=35	=35	=35
0r	1F	1A	1c	1cc
.	[1D	1A	2r	[1dd
.	.	.	[2f	.
=36	=36	=36	=36	=36
0r	2D]	2B	2f]	2dd]
.	2E	2G	2e	2cc
.	1F	1A	2.c	1a
.	.	.	8B/L	.
.	.	.	8A/J	.
=37	=37	=37	=37	=37
1r	0E	1G	0e	[0b
1E	.	1r	.	.
=38	=38	=38	=38	=38
2E	2r	2r	2r	0b]
2E	2E	2G	2B	.
1E	2E	2G	[1e	.
.	2E	2G	.	.
=39	=39	=39	=39	=39
1AA	1A	1c	2e]	0r
.	.	.	2e	.
1C	1E	2r	2e	.
.	.	2G	2c	.
=40	=40	=40	=40	=40
1GG	1G	2G	1d	0r
.	.	2G	.	.
1GG	1D	1B	1d	.
=41	=41	=41	=41	=41
2r	0E	2r	2.B	2r
2G	.	2G	.	2b
.	.	.	4A	.
2G	.	2G	2B	2b
2G	.	2G	[2G	2b
=42	=42	=42	=42	=42
1C	0r	1c	4G]	1ee
.	.	.	4F	.
.	.	.	4G	.
.	.	.	4A	.
1G	.	1B	4B	1dd
.	.	.	4c	.
.	.	.	4d	.
.	.	.	4B	.
=43	=43	=43	=43	=43
2A	0r	2A	4c	2cc
.	.	.	4d	.
2E	.	2G	1e	2b
1F	.	1A	.	1a
.	.	.	2d	.
=44	=44	=44	=44	=44
1E	0G	1B	1e	[0g
1r	.	2r	2r	.
.	.	2B	2d	.
=45	=45	=45	=45	=45
0r	2G	2B	2d	0g]
.	2G	2B	2d	.
.	2G	2B	2d	.
.	2G	2B	2d	.
=46	=46	=46	=46	=46
0r	1E	1c	1e	0r
.	1F	1A	1d	.
=47	=47	=47	=47	=47
0r	1G	0G	1B	0r
.	2r	.	2r	.
.	2G	.	2d	.
=48	=48	=48	=48	=48
0r	2G	1r	2d	0r
.	2G	.	2d	.
.	2G	2r	2d	.
.	2F	2A	2f	.
=49	=49	=49	=49	=49
0r	1E	2B	1g	0r
.	.	2c	.	.
.	1D	1d	1f	.
=50	=50	=50	=50	=50
1r	1r	2c	2e	0r
.	.	2B	2d	.
1C	2r	1e	1c	.
.	2C	.	.	.
=51	=51	=51	=51	=51
2GG	2G	1d	1B	0r
2BB	4D	.	.	.
.	4E	.	.	.
2AA	4F	2c	1r	.
.	4D	.	.	.
2GG	[2G	2B	.	.
=52	=52	=52	=52	=52
1AA	2G]	1c	1r	1a
.	2F#Xi	.	.	.
[1GG	[1G	1B	1d	[1dd
=53	=53	=53	=53	=53
0GG]	1G]	0r	1.g	2dd]
.	.	.	.	2cc
.	1r	.	.	2b
.	.	.	2f	2a
=54	=54	=54	=54	=54
0r	0r	0r	2e	2g
.	.	.	2d	2f
.	.	.	2c	1g
.	.	.	2B	.
=55	=55	=55	=55	=55
0r	1r	1r	1c	1a
.	1G	2r	1d	[1b
.	.	[2B	.	.
=56	=56	=56	=56	=56
1r	1E	2B]	1e	1b]
.	.	2G	.	.
[1C	[1G	[1c	1r	1r
=57	=57	=57	=57	=57
1C]	1G]	1c]	0e	0ee
[1AA	[1A	[1c	.	.
=58	=58	=58	=58	=58
1AA]	1A]	1c]	1e	1cc
[1D	[1F	[1A	[1f	[1dd
=59	=59	=59	=59	=59
0D]	0F]	0A]	0f]	0dd]
=60	=60	=60	=60	=60
1D	1F	1A	1f	1dd
1GG	1G	1B	1d	1b
=61	=61	=61	=61	=61
0C	[0E	[0G	0e	0cc
=62	=62	=62	=62	=62
0C	1E]	0G]	[0e	[0cc
.	2r	.	.	.
.	2G	.	.	.
=63	=63	=63	=63	=63
2r	2G	0r	0e]	0cc_
2C	2G	.	.	.
2C	1G	.	.	.
2C	.	.	.	.
=64	=64	=64	=64	=64
1C	1E	0r	0r	0cc]
1AA	1A	.	.	.
=65	=65	=65	=65	=65
1E	2G	0r	0r	0r
.	2E	.	.	.
2D	2F	.	.	.
2BB	2G	.	.	.
=66	=66	=66	=66	=66
1C	1E	0r	0r	0r
2GG	1D	.	.	.
2BB	.	.	.	.
=67	=67	=67	=67	=67
1AA	1r	0r	0r	0r
1GG	[1G	.	.	.
=68	=68	=68	=68	=68
1r	1G]	0r	0r	0r
1C	2G	.	.	.
.	2G	.	.	.
=69	=69	=69	=69	=69
2C	2.G	0r	0r	0r
2C	.	.	.	.
.	4G	.	.	.
2.C	1E	.	.	.
4C	.	.	.	.
=70	=70	=70	=70	=70
1AA	1A	0r	0r	0r
1E	1G	.	.	.
=71	=71	=71	=71	=71
4C	1c	0r	0r	0r
4D	.	.	.	.
4E	.	.	.	.
4F	.	.	.	.
2G	2B	.	.	.
[2F	[2A	.	.	.
=72	=72	=72	=72	=72
2F]	2A]	0r	0r	0r
1E	2G	.	.	.
.	1F	.	.	.
2D	.	.	.	.
=73	=73	=73	=73	=73
1E	[0E	[0c	0r	[0ee
1r	.	.	.	.
=74	=74	=74	=74	=74
0C	1E]	0c]	[0g	0ee]
.	1r	.	.	.
=75	=75	=75	=75	=75
0GG	0G	0B	0g]	0dd
=76	=76	=76	=76	=76
1r	1D	1r	1f	1r
1D	2r	1A	2r	2r
.	2F	.	2f	2a
=77	=77	=77	=77	=77
2D	2F	2A	2f	2a
2D	2F	2A	2f	2a
2D	2F	2A	2f	2a
2D	2F	2A	2f	2a
=78	=78	=78	=78	=78
1D	1F	1d	1f	1a
1E	1G	1B	1e	1g
=79	=79	=79	=79	=79
1.AA	1E	1A	1e	1a
.	[1A	[1c	[1f	[1a
[2F	.	.	.	.
=80	=80	=80	=80	=80
2F]	2A]	2c]	2f]	2a]
2F	2A	2c	2f	2a
2F	2A	2c	2f	2a
2F	2A	2c	2f	2a
=81	=81	=81	=81	=81
2F	2A	2c	2f	2a
1F	1A	1c	1f	1a
2C	2E	2c	2e	2g
=82	=82	=82	=82	=82
1.D	1F	1.A	1.d	1.f
.	1D	.	.	.
2D	.	2A	2d	2f
=83	=83	=83	=83	=83
0AA	0E	[0A	[0c	[0e
=84	=84	=84	=84	=84
2r	2r	0A_	0c]	0e]
2AA	2E	.	.	.
2AA	2E	.	.	.
2AA	2E	.	.	.
=85	=85	=85	=85	=85
1AA	1E	0A]	0r	0r
1D	1F	.	.	.
=86	=86	=86	=86	=86
0AA	0E	2r	2r	2r
.	.	2A	2c	2e
.	.	2A	2c	2e
.	.	2A	2c	2e
=87	=87	=87	=87	=87
1AA	1r	1A	1c	1e
1r	1D	1d	1d	1f
=88	=88	=88	=88	=88
1.AA	1.E	[0A	[0c	0e
2AA	2E	.	.	.
=89	=89	=89	=89	=89
1AA	1E	0A]	1c]	0r
1D	1F	.	1r	.
=90	=90	=90	=90	=90
0AA	0E	1A	1c	1e
.	.	2A	2c	2e
.	.	2A	2c	2e
=91	=91	=91	=91	=91
1r	1D	1d	1d	1f
1AA	1A	2A	1c	1e
.	.	[2e	.	.
=92	=92	=92	=92	=92
1E	2G	2e]	2r	2.g
.	2E	2c	2g	.
.	.	.	.	4a
2D	2F	2d	2f	2b
2C	2G	2e	2e	[2cc
=93	=93	=93	=93	=93
1AA	1A	1c	4c	2cc]
.	.	.	4d	.
.	.	.	4e	4b
.	.	.	4f	4a
2E	1E	2B	1g	2g
2C	.	2e	.	2cc
=94	=94	=94	=94	=94
1D	1F	1d	1f	2b
.	.	.	.	1a
1GG	1G	1B	1d	.
.	.	.	.	2g
=95	=95	=95	=95	=95
1r	0C	1c	1.e	[0g
1G	.	1r	.	.
.	.	.	4d	.
.	.	.	4c	.
=96	=96	=96	=96	=96
0G	0r	1d	[0B	0g_
.	.	[1d	.	.
=97	=97	=97	=97	=97
2r	0r	1d]	0B]	0g]
2G	.	.	.	.
2G	.	2r	.	.
2G	.	2d	.	.
=98	=98	=98	=98	=98
1G	0r	2d	0r	0r
.	.	2d	.	.
2F	.	1d	.	.
2D	.	.	.	.
=99	=99	=99	=99	=99
2F	0r	2c	0r	0r
2F	.	2A	.	.
2.C	.	[1c	.	.
4D	.	.	.	.
=100	=100	=100	=100	=100
4E	1r	2c]	1r	0r
4F	.	.	.	.
1G	.	2B	.	.
.	1D	1A	1d	.
2F#Xi	.	.	.	.
=101	=101	=101	=101	=101
0G	1E	0G	1B	1b
.	2.C	.	[1e	[1cc
.	4D	.	.	.
=102	=102	=102	=102	=102
1C	4E	0r	1e]	1cc]
.	4F	.	.	.
.	1G	.	.	.
1D	.	.	1d	1a
.	2F#Xi	.	.	.
=103	=103	=103	=103	=103
0GG	0G	2r	2r	0g
.	.	2d	2B	.
.	.	2d	2B	.
.	.	2d	2B	.
=104	=104	=104	=104	=104
0r	2r	2e	2c	0r
.	2D	2d	2B	.
.	2E	2c	2B	.
.	2F	2c	2A	.
=105	=105	=105	=105	=105
2r	2G	2B	2B	1g
2G	2.C	1c	1.e	.
2G	.	.	.	2g
.	4D	.	.	.
2G	2E	2B	.	2g
=106	=106	=106	=106	=106
2A	2F	2A	2d	2f
2G	1E	2B	2e	2g
2F	.	2c	1f	1a
2F	2D	2d	.	.
=107	=107	=107	=107	=107
0C	[0El	2r	[0el	0g
.	.	1G	.	.
.	.	2E	.	.
=108	=108	=108	=108	=108
0AA	0E_	0A	0e_	1.cc
.	.	.	.	4b
.	.	.	.	4a
=109	=109	=109	=109	=109
0El	0E]	0Gl	0e]	0bl
!!LO:LB:i:g=z
=||	=||	=||	=||	=||
*>B	*>B	*>B	*>B	*>B
*clefF4	*clefF4	*clefGv2	*clefGv2	*clefG2
*k[]	*k[]	*k[]	*k[]	*k[]
*M2/1	*M2/1	*M2/1	*M2/1	*M2/1
*met(C|)	*met(C|)	*met(C|)	*met(C|)	*met(C|)
!!section: Secunda pars: Verumtamen
!!!OMD: Secunda pars: Verumtamen
0C	0G	0c	[0e	0g
=110	=110	=110	=110	=110
1.C	1.G	1.c	0e]	1.g
2C	2G	2c	.	2g
=111	=111	=111	=111	=111
0C	[0G	0c	1.e	1g
.	.	.	.	1r
.	.	.	2e	.
=112	=112	=112	=112	=112
0r	0G]	2r	0d	1b
.	.	2G	.	.
.	.	2G	.	2b
.	.	[2G	.	[2b
=113	=113	=113	=113	=113
0r	0r	4G]	0r	4b]
.	.	4G	.	4b
.	.	2d	.	2a
.	.	2B	.	2dd
.	.	2c	.	2cc
=114	=114	=114	=114	=114
0r	0r	2d	0r	2a
.	.	2B	.	2dd
.	.	2c	.	2cc
.	.	2d	.	2a
=115	=115	=115	=115	=115
1r	1r	0G	1r	1b
1C	2r	.	2r	[1g
.	2c	.	2e	.
=116	=116	=116	=116	=116
2C	2c	0r	2e	0g]
2.C	2.c	.	2.e	.
4C	4c	.	4e	.
2G	2B	.	2d	.
=117	=117	=117	=117	=117
2E	2G	0r	2g	0r
2F	2A	.	2f	.
2G	2B	.	2d	.
2E	2G	.	2g	.
=118	=118	=118	=118	=118
2F	2A	0r	2f	0r
2G	2B	.	2d	.
1C	1c	.	1e	.
=119	=119	=119	=119	=119
2r	[0G	2r	1d	2r
2G	.	2d	.	2b
2G	.	2d	1r	2b
2G	.	2d	.	2b
=120	=120	=120	=120	=120
2G	0G]	2d	0r	2b
2G	.	2d	.	2b
4C	.	1e	.	1cc
4D	.	.	.	.
4E	.	.	.	.
4F	.	.	.	.
=121	=121	=121	=121	=121
2G	0r	1d	1r	2b
2D	.	.	.	1a
2F	.	2c	2r	.
2G	.	2B	[2d	2g
=122	=122	=122	=122	=122
1D	1r	1A	2d]	1f
.	.	.	2d	.
1r	1C	[1c	[1g	[1e
=123	=123	=123	=123	=123
0r	2C	0c]	0g_	0e]
.	2C	.	.	.
.	2C	.	.	.
.	2C	.	.	.
=124	=124	=124	=124	=124
0r	1G	1B	1g]	0r
.	1A	2r	2e	.
.	.	2A	2f	.
=125	=125	=125	=125	=125
0r	2G	2B	2g	0r
.	1F	2c	1a	.
.	.	2d	.	.
.	2E	2G	2g	.
=126	=126	=126	=126	=126
1r	1D	2A	1f	0r
.	.	2B	.	.
1C	1C	1c	1e	.
=127	=127	=127	=127	=127
0G	0r	[0B	0r	1d
.	.	.	.	[1g
=128	=128	=128	=128	=128
1G	0r	0B]	0r	2g]
.	.	.	.	2g
2E	.	.	.	2g
2E	.	.	.	2g
=129	=129	=129	=129	=129
2A	0r	0r	0r	2f
2G	.	.	.	1e
1F	.	.	.	.
.	.	.	.	2d
=130	=130	=130	=130	=130
[0E	1C	1c	1g	0e
.	[1G	[1B	[1g	.
=131	=131	=131	=131	=131
0E]	2G]	2B]	2g]	0r
.	2G	2B	2g	.
.	2E	2B	2g	.
.	2E	2B	2g	.
=132	=132	=132	=132	=132
0r	2A	2c	2f	0r
.	2G	1B	1e	.
.	1F	.	.	.
.	.	2A	2d	.
=133	=133	=133	=133	=133
1C	0E	0c	1e	1g
2C	.	.	2r	2g
2C	.	.	2e	2g
=134	=134	=134	=134	=134
2D	0r	0r	2d	2f
2E	.	.	2c	2g
1F	.	.	2c	1a
.	.	.	2A	.
=135	=135	=135	=135	=135
2E	0r	0r	1e	1g
2G	.	.	.	.
2A	.	.	2e	1r
2B	.	.	2d	.
=136	=136	=136	=136	=136
2.c	2r	2r	2e	0r
.	2C	1c	2g	.
4B	.	.	.	.
2A	2D	.	2f	.
2G	2E	2B	2e	.
=137	=137	=137	=137	=137
2F	2F	2A	2d	0r
2E	2G	2G	1e	.
1F	1A	2D	.	.
.	.	2A	2d	.
=138	=138	=138	=138	=138
1E	1B	2A	[0e	1b
.	.	2G#Xi	.	.
1AA	2A	[1A	.	2.cc
.	[2c	.	.	.
.	.	.	.	4b
=139	=139	=139	=139	=139
0r	2c]	2A]	1e]	2a
.	2B	2E	.	2g
.	2A	2F	1r	2f
.	2G	2G	.	2e
=140	=140	=140	=140	=140
0r	2F	2A	0r	2d
.	2E	2.B	.	1e
.	1F	.	.	.
.	.	8AL	.	.
.	.	8GJ	.	.
.	.	2A	.	2d
=141	=141	=141	=141	=141
1r	0E	[0B	0g	1e
[1E	.	.	.	1r
=142	=142	=142	=142	=142
0E]	1r	1B]	1g	0b
.	1G	1r	[1g	.
=143	=143	=143	=143	=143
1E	1G	1B	2g]	1b
.	.	.	2g	.
[1E	[1G	1B	1g	[1b
=144	=144	=144	=144	=144
2E]	2G]	1.B	0g	2b]
2E	2G	.	.	2b
1E	1G	.	.	1b
.	.	2G	.	.
=145	=145	=145	=145	=145
0F	0D	1d	0f	0a
.	.	1d	.	.
=146	=146	=146	=146	=146
0E	0G	0e	0g	0b
=147	=147	=147	=147	=147
2r	2r	2r	2r	2r
1E	1G	1e	1g	1b
2E	2G	2e	2g	2b
=148	=148	=148	=148	=148
0C	1.E	0e	0g	0cc
.	4D	.	.	.
.	4C	.	.	.
=149	=149	=149	=149	=149
0GG	0G	0d	0g	0b
=150	=150	=150	=150	=150
1D	2r	1d	0r	0a
.	2F	.	.	.
2D	2F	2d	.	.
2D	2F	2d	.	.
=151	=151	=151	=151	=151
1E	1G	1c	0r	1r
2D	2F	2B	.	2r
2C	[2E	[2A	.	2a
=152	=152	=152	=152	=152
1BB	2E]	2A]	1r	2b
.	2D	2G#Xi	.	2b
[1AA	[1E	[1A	2r	1cc
.	.	.	2c	.
=153	=153	=153	=153	=153
0AA]	1E]	0A]	2c	1cc
.	.	.	2c	.
.	2r	.	2f	2a
.	2C	.	2e	2cc
=154	=154	=154	=154	=154
2r	2G	1E	2d	2b
2AA	2A	.	2c	1a
2E	2B	1r	1e	.
2E	[2c	.	.	2g#Xi
=155	=155	=155	=155	=155
1.F	4c]	0r	2A	0a
.	4B	.	.	.
.	4A	.	1d	.
.	4G	.	.	.
.	2A	.	.	.
2E	2G	.	2c	.
=156	=156	=156	=156	=156
2D	2F	0r	2B	2r
2C	1E	.	1A	2a
1BB	.	.	.	1dd
.	2D	.	2G#Xi	.
=157	=157	=157	=157	=157
1AA	1E	1A	0A	1cc
1r	2r	1d	.	1a
.	2D	.	.	.
=158	=158	=158	=158	=158
0r	1.A	1c	2r	1.cc
.	.	.	2c	.
.	.	2A	2e	.
.	2A	2A	2f	2cc
=159	=159	=159	=159	=159
0r	2G	2B	2g	2.b
.	2G	4G	2d	.
.	.	4A	.	4cc
.	2G	4B	2e	1dd
.	.	4c	.	.
.	4D	[2d	[2f	.
.	4E	.	.	.
=160	=160	=160	=160	=160
0r	4F	2d]	2f]	1a
.	4G	.	.	.
.	1A	2c	2e	.
.	.	1B	1d	1r
.	2G	.	.	.
=161	=161	=161	=161	=161
0D	1A	0A	1d	2r
.	.	.	.	2a
.	1r	.	1d	1dd
=162	=162	=162	=162	=162
1A	0r	0r	2r	1cc
.	.	.	2c	.
2G	.	.	2d	2b
2F	.	.	2f	2a
=163	=163	=163	=163	=163
1G	0r	2r	2e	1b
.	.	2G	2.d	.
1D	.	2d	.	1a
.	.	.	4c	.
.	.	2d	2A	.
=164	=164	=164	=164	=164
1r	1r	1B	1d	1r
[1AA	1E	2A	2c	[1cc
.	.	[2A	[2c	.
=165	=165	=165	=165	=165
2AA]	1E	2A]	2c]	2cc]
2AA	.	2A	2c	2cc
1D	1F	1A	1d	2.a
.	.	.	.	4b
=166	=166	=166	=166	=166
0AA	0E	0A	0c	0cc
=167	=167	=167	=167	=167
1AA	1E	1c	1e	1cc
1BB	1r	1d	1d	1b
=168	=168	=168	=168	=168
1AA	0r	1e	2c	2a
.	.	.	2e	2cc
1D	.	1f	1d	2b
.	.	.	.	[2a
=169	=169	=169	=169	=169
1E	1C	1e	2.c	2a]
.	.	.	.	2g
.	.	.	4B	.
2.F	1D	1d	1A	1f
4G	.	.	.	.
=170	=170	=170	=170	=170
0A	1AA	0c	0r	0e
.	1AA	.	.	.
=171	=171	=171	=171	=171
0G	0E	0B	2r	2r
.	.	.	2e	2g
.	.	.	2e	2g
.	.	.	2e	2g
=172	=172	=172	=172	=172
1r	1r	1r	2f	2a
.	.	.	2d	2b
2r	2r	2r	[1c	[1cc
2C	2G	2e	.	.
=173	=173	=173	=173	=173
2C	2G	2e	1c]	1cc]
2C	2G	2e	.	.
2F	2A	2c	1r	1r
2D	2B	2d	.	.
=174	=174	=174	=174	=174
0C	0c	0G	2r	2r
.	.	.	2e	2g
.	.	.	2e	2g
.	.	.	2e	2g
=175	=175	=175	=175	=175
1r	2F	2c	2f	2a
.	2G	2B	2d	2b
1C	2C	1A	2.c	2cc
.	[2c	.	.	[2g
.	.	.	4d	.
=176	=176	=176	=176	=176
2C	2c]	1r	4e	4g]
.	.	.	4f	4a
2.GG	2B	.	2.g	4b
.	.	.	.	4cc
.	1G	2r	.	2.dd
4AA	.	.	4f	.
4BB	.	[2d	2d	.
4C	.	.	.	4cc
=177	=177	=177	=177	=177
2D	1r	2d]	1f	2a
2AA	.	2c	.	1cc
2C	1G	2G	2e	.
2GG	.	[2d	2d	2b
=178	=178	=178	=178	=178
1D	2F	2d]	1f	1a
.	2D	2d	.	.
1r	2E	2B	1e	[1g
.	4C	[2c	.	.
.	4D	.	.	.
=179	=179	=179	=179	=179
0r	4E	2c]	0r	1g]
.	4F	.	.	.
.	4G	2B	.	.
.	4E	.	.	.
.	2.A	2.c	.	1r
.	4G	4B	.	.
=180	=180	=180	=180	=180
0r	2F	2A	0r	0r
.	1E	2G	.	.
.	.	1F	.	.
.	2D	.	.	.
=181	=181	=181	=181	=181
1G	0E	0E	1B	0r
1C	.	.	1c	.
=182	=182	=182	=182	=182
1G	1r	1r	1B	1r
1E	1E	1G	1e	1b
=183	=183	=183	=183	=183
1A	1AA	1A	1c	1cc
[1E	1E	1G	[1g	2b
.	.	.	.	[2ee
=184	=184	=184	=184	=184
1E]	1C	1c	1g]	4ee]
.	.	.	.	4dd
.	.	.	.	1cc
1r	1F	1A	1r	.
.	.	.	.	4b
.	.	.	.	4a
=185	=185	=185	=185	=185
1G	0E	0e	1B	1g
1C	.	.	1c	1cc
=186	=186	=186	=186	=186
1G	1r	1r	1B	1b
2E	1E	1G	1e	2r
2E	.	.	.	2b
=187	=187	=187	=187	=187
1A	1AA	1A	1c	2cc
.	.	.	.	2cc
[1E	1E	1G	1g	2b
.	.	.	.	[2ee
=188	=188	=188	=188	=188
1E]	2C	1c	1e	4ee]
.	.	.	.	4dd
.	2C	.	.	1cc
1r	1F	1A	1r	.
.	.	.	.	4b
.	.	.	.	4a
=189	=189	=189	=189	=189
0r	[3%4.E	0e	0r	1.g
.	.	.	.	2a
=	=	=	=	=
*M3/1	*M3/1	*M3/1	*M3/1	*M3/1
*met(3)	*met(O)	*met(3)	*met(3)	*met(3)
!!primary-mensuration: met(3)
1G	0.E_	0.e	1B	0.b
1G	.	.	1B	.
1G	.	.	1B	.
=190	=190	=190	=190	=190
1C	0E]	0.r	0c	0.r
1E	.	.	.	.
1D	1r	.	1B	.
=191	=191	=191	=191	=191
1C	0.r	0.r	1.A	0.r
0BB	.	.	.	.
.	.	.	4G#Xi	.
.	.	.	4F#Xi	.
.	.	.	1G#Xi	.
=192	=192	=192	=192	=192
0AA	0.r	0.r	0.A	0.r
1r	.	.	.	.
=193	=193	=193	=193	=193
1E	1G	1B	1r	1g
1E	1G	1B	1r	1g
1E	1G	1B	1e	1g
=194	=194	=194	=194	=194
1AA	1A	0c	1e	2e
.	.	.	.	2f
1E	1G	.	1c	2g
.	.	.	.	2a
1D	1F	1B	1d	1b
=195	=195	=195	=195	=195
1C	1.E	0A	1e	1cc
0BB	.	.	1f	1dd
.	4D	.	.	.
.	4C	.	.	.
.	2D	1G	1g	1b
.	2E	.	.	.
=196	=196	=196	=196	=196
[0.AAl	0.F	[0.Al	[0.cl	[0.ccl
=197	=197	=197	=197	=197
0.AA]	0.El	0.A]	0.c]	0.cc]
!!LO:LB:i:g=z
=||	=||	=||	=||	=||
*>C	*>C	*>C	*>C	*>C
*clefF4	*clefF4	*clefGv2	*clefGv2	*clefG2
*k[]	*k[]	*k[]	*k[]	*k[]
*M2/1	*M2/1	*M2/1	*M2/1	*M2/1
*met(C|)	*met(C|)	*met(C|)	*met(C|)	*met(C|)
!!section: Tertia pars: In camo et freno
!!!OMD: Tertia pars: In camo et freno
0r	0r	0r	1e	0r
.	.	.	1f	.
=198	=198	=198	=198	=198
0r	0r	0r	1e	1r
.	.	.	1g	1e
=199	=199	=199	=199	=199
0r	0r	0r	1a	1f
.	.	.	1g	1e
=200	=200	=200	=200	=200
1E	0r	0r	1c	1g
1F	.	.	[1c	1a
=201	=201	=201	=201	=201
2E	0r	0r	2c]	1g
2E	.	.	2c	.
[1A	.	.	[1c	1cc
=202	=202	=202	=202	=202
1A]	0r	0r	1c]	1cc
1G	.	.	1g	2b
.	.	.	.	2a
=203	=203	=203	=203	=203
2r	0r	0r	2f	1dd
2B-X	.	.	2d	.
2A	.	.	1f	2cc
2F	.	.	.	2a
=204	=204	=204	=204	=204
1A	1r	0r	2e	1cc
.	.	.	4c	.
.	.	.	4d	.
2G	1E	.	4e	2b
.	.	.	4f	.
2C	.	.	[2e	2cc
=205	=205	=205	=205	=205
1D	1F	0r	2e]	1a
.	.	.	2d	.
1G	1E	.	1e	2g
.	.	.	.	4c
.	.	.	.	4d
=206	=206	=206	=206	=206
1G	1G	1E	1c	4e
.	.	.	.	4f
.	.	.	.	1e
1r	1A	1F	1r	.
.	.	.	.	2d
=207	=207	=207	=207	=207
0r	1G	1E	0r	[0e
.	1C	1G	.	.
=208	=208	=208	=208	=208
0r	1.C	1A	0r	0e]
.	.	1G	.	.
.	2C	.	.	.
=209	=209	=209	=209	=209
0r	0C	1c	1e	0r
.	.	1c	1e	.
=210	=210	=210	=210	=210
0r	1G	2B	2d	0r
.	.	2G	2d	.
.	2F	1d	1f	.
.	2D	.	.	.
=211	=211	=211	=211	=211
0r	1F	2c	2f	0r
.	.	2A	2f	.
.	4C	1c	1e	.
.	4D	.	.	.
.	4E	.	.	.
.	4F	.	.	.
=212	=212	=212	=212	=212
1r	0G	1B	0d	0g
2r	.	2r	.	.
2G	.	2B	.	.
=213	=213	=213	=213	=213
2G	0r	2B	1d	2g
2G	.	2B	.	2g
2C	.	1c	2e	2g
2C	.	.	2e	2a
=214	=214	=214	=214	=214
2G	0r	2B	2d	2b
2A	.	2.A	2c	1cc
1E	.	.	1e	.
.	.	8GL	.	.
.	.	8FJ	.	.
.	.	2G	.	[2b
=215	=215	=215	=215	=215
1F	1r	1A	2c	2b]
.	.	.	2d	1a
1E	2r	1B	1e	.
.	[2E	.	.	2g#Xi
=216	=216	=216	=216	=216
1AA	2E]	0c	[0e	1a
.	2E	.	.	.
2r	1C	.	.	1r
[2E	.	.	.	.
=217	=217	=217	=217	=217
2E]	1G	1B	0e]	0r
2E	.	.	.	.
1C	1E	1r	.	.
=218	=218	=218	=218	=218
1G	4C	0r	0r	0r
.	4D	.	.	.
.	4E	.	.	.
.	4F	.	.	.
2E	2G	.	.	.
2C	2A	.	.	.
=219	=219	=219	=219	=219
2D	2F	0r	0r	0r
1E	2E	.	.	.
.	1F	.	.	.
2D	.	.	.	.
=220	=220	=220	=220	=220
0E	[0G	2r	1B	0r
.	.	1B	.	.
.	.	.	2B	.
.	.	2B	[2G	.
=221	=221	=221	=221	=221
0r	0G_	1G	2G]	2r
.	.	.	1d	1b
.	.	1d	.	.
.	.	.	[2B	2b
=222	=222	=222	=222	=222
0r	0G]	1B	2B]	1g
.	.	.	4G	.
.	.	.	4A	.
.	.	4G	4B	1dd
.	.	4A	4c	.
.	.	4B	2d	.
.	.	4c	.	.
=223	=223	=223	=223	=223
0r	0r	2d	2G	2b
.	.	1e	1c	1cc
.	.	2d	2G	2b
=224	=224	=224	=224	=224
1AA	1r	1c	1A	1a
[1E	2r	1B	1G	[1b
.	2G	.	.	.
=225	=225	=225	=225	=225
2E]	2G	0r	0r	1b]
2E	2G	.	.	.
1F	1A	.	.	1r
=226	=226	=226	=226	=226
2E	2G	1r	1r	1r
2C	2A	.	.	.
2D	2F	2r	2r	2r
2E	2G	2E	2e	2b
=227	=227	=227	=227	=227
1AA	0A	2A	2e	2cc
.	.	2A	2e	2cc
1r	.	1D	1f	1dd
=228	=228	=228	=228	=228
0r	0r	2A	2e	2cc
.	.	2A	2c	2cc
.	.	2G	2d	2b
.	.	2E	2e	2g
=229	=229	=229	=229	=229
1D	0r	0F	1.A	2.a
.	.	.	.	4g
2D	.	.	.	4f
.	.	.	.	4e
2D	.	.	4G	[2f
.	.	.	4F	.
=230	=230	=230	=230	=230
2D	0r	0r	2A	2f]
2D	.	.	2B	4e
.	.	.	.	4d
1C	.	.	1c	1e
=231	=231	=231	=231	=231
1D	1A	0r	1F	0r
2.F	2A	.	1r	.
.	2A	.	.	.
4E	.	.	.	.
=232	=232	=232	=232	=232
2D	2A	0r	0r	0r
2C	2A	.	.	.
1BB	1G#Xi	.	.	.
=233	=233	=233	=233	=233
0AA	1A	1E	1e	1r
.	2.c	2.C	2e	1a
.	.	.	2e	.
.	4B	4C	.	.
=234	=234	=234	=234	=234
0r	2A	2C	2e	2a
.	2G	2C	2e	2a
.	1F	1c	1A	2a
.	.	.	.	2a
=235	=235	=235	=235	=235
0r	1E	1C	1e	1g
.	1r	2.F	2c	1a
.	.	.	[2f	.
.	.	4G	.	.
=236	=236	=236	=236	=236
0r	0r	4A	2f]	2.cc
.	.	4B	.	.
.	.	1c	1e	.
.	.	.	.	4b
.	.	.	.	2a
.	.	2B	2d	2g
=237	=237	=237	=237	=237
0r	0r	2A	2c	2f
.	.	2G	1B	1e
.	.	1F	.	.
.	.	.	2A	2d
=238	=238	=238	=238	=238
2r	2r	[0E	[0c	[0e
2C	2G	.	.	.
2.C	2.G	.	.	.
4C	4G	.	.	.
=239	=239	=239	=239	=239
1AA	1A	0E_	0c]	0e]
2r	2r	.	.	.
2C	2G	.	.	.
=240	=240	=240	=240	=240
2.C	2.G	0E]	0r	0r
4C	4G	.	.	.
2AA	2c	.	.	.
2E	2B	.	.	.
=241	=241	=241	=241	=241
2F	2A	1r	1r	1r
2D	2F	.	.	.
1E	[1E	2r	2r	2r
.	.	2G	2g	2b
=242	=242	=242	=242	=242
0r	1E]	2.G	2.g	2.b
.	.	4G	4g	4b
.	1r	2c	2e	2cc
.	.	2G	2d	2b
=243	=243	=243	=243	=243
0r	0r	2c	2e	2g
.	.	2A	2f	2a
.	.	1G	1g	1b
=244	=244	=244	=244	=244
0r	0r	1.G	2d	1.b
.	.	.	2e	.
.	.	.	1g	.
.	.	2E	.	2g
=245	=245	=245	=245	=245
0r	0r	2F	2f	2a
.	.	2G	1e	2b
.	.	1A	.	1cc
.	.	.	2c	.
=246	=246	=246	=246	=246
0r	0r	2G	2d	2b
.	.	2E	1e	2g
.	.	1F	.	1a
.	.	.	2d	.
=247	=247	=247	=247	=247
2r	2r	0E	0e	1g
2C	2G	.	.	.
2.C	2.G	.	.	1r
4AA	4A	.	.	.
=248	=248	=248	=248	=248
2BB	2G	2r	2r	2r
2C	2E	2G	2e	2cc
2D	2F	2F	2d	2a
2E	2G	2E	2B	2g
=249	=249	=249	=249	=249
1AA	1C	2.A	2c	2.cc
.	.	.	2c	.
.	.	4G	.	4b
1r	1r	2F	2d	2a
.	.	2F	2d	2a
=250	=250	=250	=250	=250
2r	4C	0E	0e	0g
.	4D	.	.	.
4C	4E	.	.	.
4D	4F	.	.	.
4E	2G	.	.	.
4F	.	.	.	.
2G	2E	.	.	.
=251	=251	=251	=251	=251
2F	2A	0r	0r	0r
2E	2G	.	.	.
1D	1F	.	.	.
=252	=252	=252	=252	=252
0C	0E	4C	0e	2r
.	.	4D	.	.
.	.	4E	.	4c
.	.	4F	.	4d
.	.	2G	.	4e
.	.	.	.	4f
.	.	2E	.	2g
=253	=253	=253	=253	=253
2D	1r	2A	2d	2f
2E	.	2G	2c	1e
1F	1D	1F	1A	.
.	.	.	.	2d
=254	=254	=254	=254	=254
1C	0G	2E	1c	[0e
.	.	2C	.	.
1GG	.	2.G	1B	.
.	.	4F	.	.
=255	=255	=255	=255	=255
0AA	2.C	2E	0A	0e_
.	.	2C	.	.
.	4D	.	.	.
.	[1El	1c	.	.
=256	=256	=256	=256	=256
0EE	0E_	1B	2G	0e]
.	.	.	4E	.
.	.	.	4F	.
.	.	2r	4G	.
.	.	.	4A	.
.	.	4E	[2B	.
.	.	4F	.	.
=257	=257	=257	=257	=257
0r	0E_	4G	2B]	1r
.	.	4A	.	.
.	.	2B	2E	.
.	.	2E	1B	1g
.	.	4F	.	.
.	.	4G	.	.
=258	=258	=258	=258	=258
0AA	0E_	0C	0c	0a
=259	=259	=259	=259	=259
[0EEl	0E_	[0Gl	[0Bl	0b
=260	=260	=260	=260	=260
0EE_	0E_	0G_	0B_	0g
=261	=261	=261	=261	=261
0EE]	0E]	0G]	0B]	0gl
==	==	==	==	==
*-	*-	*-	*-	*-
!!!RDF**kern: l=long note in original notation
!!!system-decoration: s1,s2,s3,s4,s5
!!!RDF**kern: i = editorial accidental
!!!ENC: Chris Gage
!!!END: 2014/06/30
!!!EED: Jesse Rodin
!!!EEV: 2021/03/25
!!attribution-level@Jos: 4a (the rest [double question mark])
!!!ONB: Translated from MusicXML and edited on 2021/03/25 by Craig Sapp
!!muse2ps: C^@{COA}??\n@{SCT}^i2I150v85,85,85,85,150c125
